; generated by SuperSlicer 2.4 on 2023-09-29 at 15:34:29 UTC

; 

; external perimeters extrusion width = 0.42mm
; perimeters extrusion width = 0.45mm
; infill extrusion width = 0.45mm
; solid infill extrusion width = 0.45mm
; top infill extrusion width = 0.42mm
; support material extrusion width = 0.42mm


G10 P0 R240 ; sets the standby temperature
;TYPE:Custom
; ===== PRINTER START GCODE =====

M190 S115 ; set bed temperature and wait for it to be reached

G4 S120; wait for S seconds
M400;

G28 X F600	; Home X axis
G28 Y F600	; Home Y axis

T0;
M80; starting my post processing by turning printer on
G4 P10000; wait for N mseconds
M400;
G1 X20.0 F600;
G4 P5000; wait for N mseconds
M400;
G90;
G28 X;
G28 Z;
G4 P2000;
G1 Z10 F2000;
G4 P2000;
M400;
G28 Z;
G4 P1000;
G1 Z10 F2000;
G4 P1000;
G28 Z; ending my post proccessing

G10 P0 S240 ; set temperature
M116 ; wait for temperature to be reached

G92 E0	; reset counter to 0
G1 E20.00 F300	; purge extruder
G92 E0	; reset counter to 0
G4 P3000	; wait for 3 seconds
G1 X20.0 F1200 ; Move X 20mm right with speed F1200
G28 X	; home X
G28 Y	; home Y

; ===== END OF =====
; =====PRINTER START GCODE =====
M107
G21 ; set units to millimeters
G90 ; use absolute coordinates
M82 ; use absolute distances for extrusion
G92 E0
; Filament gcode
;_TOOLCHANGE 0
M107
;LAYER_CHANGE
;Z:0.16
;HEIGHT:0.16
M400 ; wait for all movement to complete
M118 P4 S"LAYER CHANGE" ; take a picture
G4 P500 ; wait a bit
G1 Z0.16 F4800
G1 E-1.2 F300
G1 X134.188485 Y135.087134 F4800
G1 E0 F300
;TYPE:Skirt
;WIDTH:0.45
G1 F900
G1 X135.215804 Y134.071463 E0.03994
G1 X136.391921 Y133.123222 E0.08172
G1 X137.642473 Y132.311165 E0.12295
G1 X138.89579 Y131.662522 E0.16197
G1 X140.197695 Y131.140209 E0.20075
G1 X141.551429 Y130.743284 E0.23976
G1 X142.948933 Y130.476004 E0.2791
G1 X144.348541 Y130.346262 E0.31797
G1 X145.771278 Y130.351805 E0.3573
G1 X147.345143 Y130.5204 E0.40107
G1 X148.895419 Y130.859086 E0.44495
G1 X150.406397 Y131.36329 E0.48899
G1 X151.130926 Y131.674897 E0.5108
G1 X151.826334 Y132.015677 E0.53221
G1 X153.06408 Y132.747312 E0.57197
G1 X154.23 Y133.599714 E0.6119
G1 X155.340019 Y134.597853 E0.65318
G1 X156.204794 Y135.532878 E0.68839
G1 X157.068821 Y136.665001 E0.72777
G1 X157.78286 Y137.80752 E0.76502
G1 X158.404857 Y139.044831 E0.80331
G1 X158.908739 Y140.341419 E0.84178
G1 X159.290053 Y141.690668 E0.88055
G1 X159.541923 Y143.082524 E0.91966
G1 X159.657025 Y144.430506 E0.95706
G1 X159.646343 Y145.815072 E0.99535
G1 X159.465248 Y147.4317 E1.04033
G1 X159.10443 Y149.024408 E1.08548
G1 X158.795939 Y149.980852 E1.11327
G1 X158.478783 Y150.787143 E1.13723
G1 X158.006798 Y151.783099 E1.1677
G1 X157.266537 Y153.043069 E1.20811
G1 X156.401303 Y154.228704 E1.24869
G1 X155.402163 Y155.340005 E1.29001
G1 X154.467092 Y156.204815 E1.32523
G1 X153.334821 Y157.068958 E1.36461
G1 X152.174087 Y157.793162 E1.40244
G1 X150.934101 Y158.414266 E1.44079
G1 X149.634377 Y158.916958 E1.47932
G1 X148.304773 Y159.290578 E1.51751
G1 X146.913023 Y159.542797 E1.55661
G1 X145.566354 Y159.657244 E1.59398
G1 X144.198971 Y159.646722 E1.63179
G1 X142.728189 Y159.4907 E1.67269
G1 X141.345369 Y159.205607 E1.71173
G1 X139.953822 Y158.772851 E1.75202
G1 X138.609436 Y158.202739 E1.7924
G1 X137.357713 Y157.519655 E1.83183
G1 X136.176587 Y156.717666 E1.8713
G1 X135.073311 Y155.798748 E1.911
G1 X134.066719 Y154.778988 E1.95062
G1 X133.122763 Y153.607457 E1.99222
G1 X132.313598 Y152.361428 E2.0333
G1 X131.679428 Y151.141187 E2.07133
G1 X131.160362 Y149.861394 E2.10951
G1 X130.737662 Y148.427052 E2.15086
G1 X130.458697 Y146.925234 E2.19309
G1 X130.339186 Y145.427219 E2.23465
G1 X130.356489 Y144.13749 E2.27031
G1 X130.517298 Y142.67356 E2.31103
G1 X130.824992 Y141.230939 E2.35182
G1 X131.239208 Y139.921422 E2.38979
G1 X131.776395 Y138.651413 E2.42792
G1 X132.481769 Y137.355863 E2.46871
G1 X133.266949 Y136.196977 E2.50741
G1 X134.150155 Y135.133295 E2.54564
G1 X134.469735 Y135.399021 F4800
G1 F900
G1 X134.501574 Y135.36073 E2.54702
G1 X135.500354 Y134.374642 E2.58583
G1 X136.644276 Y133.453686 E2.62643
G1 X137.860017 Y132.665502 E2.66649
G1 X139.077713 Y132.036393 E2.70439
G1 X140.342907 Y131.52981 E2.74207
G1 X141.658508 Y131.145042 E2.77998
G1 X143.016882 Y130.886198 E2.81821
G1 X144.376654 Y130.761094 E2.85597
G1 X145.758689 Y130.767415 E2.89418
G1 X147.289376 Y130.932459 E2.93675
G1 X148.795577 Y131.262732 E2.97939
G1 X150.250268 Y131.748614 E3.02179
G1 X150.952663 Y132.05043 E3.04293
G1 X151.636083 Y132.385335 E3.06397
G1 X152.843671 Y133.099872 E3.10277
G1 X153.97597 Y133.928887 E3.14157
G1 X155.054764 Y134.900337 E3.18171
G1 X155.89278 Y135.807686 E3.21587
G1 X156.73235 Y136.909249 E3.25416
G1 X157.425123 Y138.019399 E3.29034
G1 X158.028921 Y139.222442 E3.32756
G1 X158.517623 Y140.482495 E3.36493
G1 X158.887262 Y141.793798 E3.4026
G1 X159.131123 Y143.146663 E3.44061
G1 X159.242031 Y144.455972 E3.47694
G1 X159.230785 Y145.800799 E3.51413
G1 X159.053497 Y147.373643 E3.55789
G1 X158.701169 Y148.923204 E3.60183
G1 X158.402445 Y149.846761 E3.62867
G1 X158.094621 Y150.628257 E3.6519
G1 X157.635211 Y151.596595 E3.68153
G1 X156.913506 Y152.823407 E3.72089
G1 X156.071961 Y153.97489 E3.76032
G1 X155.099665 Y155.054764 E3.8005
G1 X154.192285 Y155.8928 E3.83465
G1 X153.09058 Y156.732482 E3.87295
G1 X151.979057 Y157.425967 E3.90918
G1 X150.774853 Y158.030189 E3.94643
G1 X149.493723 Y158.525689 E3.98441
G1 X148.202073 Y158.887682 E4.0215
G1 X146.848839 Y159.132002 E4.05952
G1 X145.541014 Y159.242243 E4.09581
G1 X144.212627 Y159.231158 E4.13255
G1 X142.782409 Y159.078463 E4.17232
G1 X141.439578 Y158.800632 E4.21023
G1 X140.087412 Y158.379104 E4.24939
G1 X138.781406 Y157.82418 E4.28863
G1 X137.565925 Y157.159759 E4.32693
G1 X136.418742 Y156.379671 E4.36529
G1 X135.347327 Y155.486028 E4.40387
G1 X134.370087 Y154.494642 E4.44236
G1 X133.453281 Y153.355174 E4.4828
G1 X132.667834 Y152.143727 E4.52272
G1 X132.052886 Y150.958431 E4.55964
G1 X131.549504 Y149.714936 E4.59673
G1 X131.13947 Y148.320091 E4.63693
G1 X130.869392 Y146.860254 E4.67798
G1 X130.754318 Y145.404106 E4.71837
G1 X130.77197 Y144.153327 E4.75296
G1 X130.929295 Y142.729628 E4.79256
G1 X131.229356 Y141.327713 E4.8322
G1 X131.632484 Y140.056347 E4.86908
G1 X132.155121 Y138.823014 E4.90612
G1 X132.841872 Y137.563717 E4.94578
G1 X133.605216 Y136.438749 E4.98337
G1 X134.431374 Y135.445156 E5.0191
G1 X134.750739 Y135.711084 F4800
G1 F900
G1 X134.81447 Y135.634547 E5.02185
G1 X135.784687 Y134.678025 E5.05952
G1 X136.896389 Y133.784334 E5.09896
G1 X138.077295 Y133.020002 E5.13786
G1 X139.259365 Y132.410395 E5.17463
G1 X140.487846 Y131.919513 E5.21121
G1 X141.765306 Y131.546875 E5.24801
G1 X143.084544 Y131.29644 E5.28513
G1 X144.404474 Y131.175946 E5.32178
G1 X145.745808 Y131.183016 E5.35887
G1 X147.233306 Y131.344477 E5.40024
G1 X148.695465 Y131.666309 E5.44164
G1 X150.094111 Y132.133926 E5.48241
G1 X150.783774 Y132.430271 E5.50317
G1 X151.445762 Y132.754955 E5.52356
G1 X152.606334 Y133.441267 E5.56084
G1 X153.721878 Y134.258015 E5.59907
G1 X154.769287 Y135.202612 E5.63806
G1 X155.580574 Y136.082275 E5.67115
G1 X156.395715 Y137.15327 E5.70837
G1 X157.067241 Y138.231032 E5.74348
G1 X157.652866 Y139.3998 E5.77962
G1 X158.126409 Y140.623298 E5.8159
G1 X158.4844 Y141.896648 E5.85247
G1 X158.720278 Y143.210514 E5.88938
G1 X158.827019 Y144.481152 E5.92464
G1 X158.815236 Y145.786245 E5.96073
G1 X158.641782 Y147.315338 E6.00328
G1 X158.302834 Y148.804081 E6.04549
G1 X158.008967 Y149.712622 E6.0719
G1 X157.710535 Y150.469187 E6.09439
G1 X157.263713 Y151.409913 E6.12318
G1 X156.56061 Y152.603528 E6.16148
G1 X155.742803 Y153.720837 E6.19977
G1 X154.797377 Y154.769301 E6.23881
G1 X153.917697 Y155.580593 E6.27189
G1 X152.846566 Y156.395841 E6.30911
G1 X151.767458 Y157.068064 E6.34427
G1 X150.597611 Y157.654076 E6.38044
G1 X149.353343 Y158.134322 E6.41732
G1 X148.099656 Y158.484714 E6.45331
G1 X146.784936 Y158.721163 E6.49025
G1 X145.515963 Y158.827224 E6.52546
G1 X144.226563 Y158.815604 E6.56111
G1 X142.836918 Y158.666265 E6.59976
G1 X141.534078 Y158.395725 E6.63655
G1 X140.221283 Y157.985452 E6.67458
G1 X138.953651 Y157.445746 E6.71268
G1 X137.774396 Y156.800013 E6.74985
G1 X136.661136 Y156.041847 E6.78709
G1 X135.621566 Y155.173504 E6.82454
G1 X134.673658 Y154.210512 E6.86191
G1 X133.783983 Y153.103132 E6.90118
G1 X133.022232 Y151.926291 E6.93995
G1 X132.426475 Y150.775942 E6.97576
G1 X131.938746 Y149.568745 E7.01177
G1 X131.541354 Y148.213414 E7.05082
G1 X131.280136 Y146.795582 E7.09068
G1 X131.169468 Y145.381307 E7.12991
G1 X131.18744 Y144.169457 E7.16342
G1 X131.341254 Y142.785978 E7.20191
G1 X131.633649 Y141.424783 E7.2404
G1 X132.025664 Y140.191551 E7.27618
G1 X132.533729 Y138.994875 E7.31213
G1 X133.201828 Y137.771826 E7.35066
G1 X133.94331 Y136.680763 E7.38714
G1 X134.712345 Y135.757192 E7.42037
G1 X135.031488 Y136.023327 F4800
G1 F900
G1 X135.127167 Y135.908592 E7.4245
G1 X136.068796 Y134.981618 E7.46103
G1 X137.148253 Y134.115173 E7.49931
G1 X138.294299 Y133.37467 E7.53703
G1 X139.440738 Y132.784533 E7.57269
G1 X140.632503 Y132.309321 E7.60816
G1 X141.871813 Y131.948785 E7.64385
G1 X143.15191 Y131.70673 E7.67987
G1 X144.431992 Y131.590818 E7.71541
G1 X145.732712 Y131.598608 E7.75138
G1 X147.155221 Y131.752893 E7.79094
G1 X148.574338 Y132.064085 E7.83111
G1 X149.938103 Y132.519299 E7.87086
G1 X150.605447 Y132.805775 E7.89094
G1 X151.255396 Y133.124554 E7.91096
G1 X152.385803 Y133.793753 E7.94728
G1 X153.467544 Y134.586956 E7.98437
G1 X154.483581 Y135.50467 E8.02223
G1 X155.26817 Y136.356639 E8.05425
G1 X156.05891 Y137.397058 E8.09039
G1 X156.709209 Y138.442413 E8.12443
G1 X157.276688 Y139.576898 E8.1595
G1 X157.735095 Y140.763821 E8.19468
G1 X158.081464 Y141.99921 E8.23016
G1 X158.309387 Y143.274068 E8.26597
G1 X158.41199 Y144.506038 E8.30015
G1 X158.399698 Y145.771401 E8.33514
G1 X158.230111 Y147.256721 E8.37647
G1 X157.899681 Y148.70245 E8.41748
G1 X157.615593 Y149.578179 E8.44294
G1 X157.326527 Y150.30993 E8.46469
G1 X156.892306 Y151.223048 E8.49265
G1 X156.207852 Y152.383426 E8.5299
G1 X155.413836 Y153.466537 E8.56703
G1 X154.495305 Y154.483609 E8.60492
G1 X153.643335 Y155.268187 E8.63695
G1 X152.602785 Y156.059031 E8.67309
G1 X151.556112 Y156.710012 E8.70717
G1 X150.420629 Y157.277841 E8.74227
G1 X149.213246 Y157.742853 E8.77805
G1 X147.99753 Y158.081672 E8.81294
G1 X146.721322 Y158.310279 E8.84879
G1 X145.491211 Y158.412188 E8.88292
G1 X144.240787 Y158.400059 E8.91749
G1 X142.891725 Y158.254106 E8.95501
G1 X141.628878 Y157.990888 E8.99068
G1 X140.355442 Y157.591899 E9.02758
G1 X139.126179 Y157.067441 E9.06453
G1 X137.983134 Y156.440422 E9.10058
G1 X136.903775 Y155.7042 E9.13671
G1 X135.896034 Y154.861182 E9.17304
G1 X134.977437 Y153.926604 E9.20927
G1 X134.114874 Y152.851338 E9.24739
G1 X133.376798 Y151.709128 E9.28499
G1 X132.800198 Y150.593728 E9.31971
G1 X132.328091 Y149.422829 E9.35461
G1 X131.943316 Y148.107031 E9.39252
G1 X131.69093 Y146.731227 E9.43119
G1 X131.584635 Y145.358832 E9.46926
G1 X131.602898 Y144.185888 E9.50169
G1 X131.753174 Y142.842618 E9.53906
G1 X132.037869 Y141.522159 E9.57641
G1 X132.418745 Y140.327043 E9.6111
G1 X132.912216 Y139.167004 E9.64595
G1 X133.561632 Y137.980196 E9.68336
G1 X134.281226 Y136.923026 E9.71872
G1 X134.993061 Y136.069407 E9.74945
G1 X135.311848 Y136.334835 F4800
G1 F900
G1 X135.426271 Y136.197411 E9.7544
G1 X136.337443 Y135.298975 E9.78978
G1 X137.382873 Y134.458459 E9.82687
G1 X138.511234 Y133.729383 E9.86401
G1 X139.621819 Y133.158812 E9.89854
G1 X140.776869 Y132.699237 E9.93291
G1 X141.978021 Y132.350774 E9.96749
G1 X143.218972 Y132.11707 E10.00241
G1 X144.459198 Y132.00571 E10.03684
G1 X145.719307 Y132.01419 E10.07168
G1 X147.098939 Y132.164881 E10.11005
G1 X148.474229 Y132.467663 E10.14899
G1 X149.782172 Y132.904701 E10.18712
G1 X150.427155 Y133.181296 E10.20653
G1 X151.064984 Y133.49413 E10.22617
G1 X152.165075 Y134.146116 E10.26153
G1 X153.21296 Y134.915704 E10.29748
G1 X154.19764 Y135.806505 E10.33419
G1 X154.955561 Y136.63077 E10.36515
G1 X155.721931 Y137.640605 E10.4002
G1 X156.351024 Y138.653533 E10.43317
G1 X156.900384 Y139.753728 E10.46718
G1 X157.343677 Y140.904055 E10.50126
G1 X157.678453 Y142.101475 E10.53564
G1 X157.898448 Y143.337316 E10.57035
G1 X157.996943 Y144.530621 E10.60346
G1 X157.98417 Y145.756259 E10.63735
G1 X157.818486 Y147.197783 E10.67747
G1 X157.496617 Y148.600467 E10.71726
G1 X157.222327 Y149.443423 E10.74177
G1 X156.942599 Y150.150481 E10.76279
G1 X156.520959 Y151.036068 E10.78991
G1 X155.866485 Y152.14604 E10.82554
G1 X155.084918 Y153.21217 E10.86209
G1 X154.193459 Y154.197678 E10.89884
G1 X153.369206 Y154.955577 E10.9298
G1 X152.359245 Y155.722047 E10.96486
G1 X151.345027 Y156.351806 E10.99787
G1 X150.243915 Y156.90148 E11.03189
G1 X149.073441 Y157.35128 E11.06656
G1 X147.895705 Y157.678554 E11.10036
G1 X146.658006 Y157.899349 E11.13513
G1 X145.466767 Y157.997133 E11.16817
G1 X144.255308 Y157.984525 E11.20167
G1 X142.946839 Y157.841988 E11.23807
G1 X141.723988 Y157.586124 E11.27261
G1 X140.489898 Y157.198447 E11.30838
G1 X139.299 Y156.68927 E11.34419
G1 X138.192148 Y156.080991 E11.37911
G1 X137.146667 Y155.366734 E11.41412
G1 X136.170675 Y154.549014 E11.44933
G1 X135.294953 Y153.658151 E11.48387
G1 X134.458171 Y152.616736 E11.52081
G1 X133.731408 Y151.492033 E11.55783
G1 X133.174061 Y150.411802 E11.59144
G1 X132.717542 Y149.277197 E11.62526
G1 X132.345358 Y148.00095 E11.66202
G1 X132.101775 Y146.6672 E11.6995
G1 X131.99982 Y145.336691 E11.7364
G1 X132.018344 Y144.202547 E11.76776
G1 X132.161714 Y142.919958 E11.80345
G1 X132.442072 Y141.619614 E11.84023
G1 X132.811722 Y140.462835 E11.87381
G1 X133.290577 Y139.339408 E11.90758
G1 X133.921318 Y138.188766 E11.94386
G1 X134.607089 Y137.18127 E11.97756
G1 X135.273456 Y136.380944 E12.00635
G1 X135.592549 Y136.647037 F4800
G1 F900
G1 X135.738969 Y136.471454 E12.01267
G1 X136.621558 Y135.602562 E12.04692
G1 X137.634673 Y134.789349 E12.08284
G1 X138.727875 Y134.084275 E12.11881
G1 X139.802599 Y133.533236 E12.1522
G1 X140.920935 Y133.089264 E12.18547
G1 X142.08392 Y132.752845 E12.21895
G1 X143.285719 Y132.527462 E12.25276
G1 X144.486083 Y132.420623 E12.28608
G1 X145.705582 Y132.429762 E12.3198
G1 X147.042327 Y132.576824 E12.35698
G1 X148.373828 Y132.871166 E12.39469
G1 X149.62621 Y133.29009 E12.4312
G1 X150.258435 Y133.561214 E12.45022
G1 X150.874419 Y133.863627 E12.46919
G1 X151.944144 Y134.498352 E12.50359
G1 X152.958118 Y135.244251 E12.53839
G1 X153.911455 Y136.108109 E12.57396
G1 X154.642741 Y136.90466 E12.60386
G1 X155.384773 Y137.883904 E12.63783
G1 X155.99268 Y138.864384 E12.66973
G1 X156.52395 Y139.930282 E12.70266
G1 X156.952152 Y141.04399 E12.73566
G1 X157.275364 Y142.203433 E12.76894
G1 X157.487461 Y143.400248 E12.80254
G1 X157.581877 Y144.55489 E12.83458
G1 X157.568653 Y145.740809 E12.86737
G1 X157.406908 Y147.138514 E12.90627
G1 X157.093645 Y148.49812 E12.94485
G1 X156.829173 Y149.308341 E12.96842
G1 X156.558752 Y149.990836 E12.98872
G1 X156.149709 Y150.848895 E13.015
G1 X155.513847 Y151.925745 E13.04958
G1 X154.756202 Y152.957541 E13.08497
G1 X153.891847 Y153.911501 E13.12057
G1 X153.095318 Y154.642756 E13.15046
G1 X152.115953 Y155.384883 E13.18444
G1 X151.134212 Y155.993441 E13.21638
G1 X150.067478 Y156.524989 E13.24933
G1 X148.933937 Y156.959599 E13.2829
G1 X147.794191 Y157.275358 E13.3156
G1 X146.594998 Y157.488372 E13.34928
G1 X145.442642 Y157.58206 E13.38124
G1 X144.270136 Y157.569001 E13.41367
G1 X143.00227 Y157.429912 E13.44893
G1 X141.819417 Y157.181435 E13.48235
G1 X140.62466 Y156.8051 E13.51699
G1 X139.472122 Y156.311237 E13.55166
G1 X138.401446 Y155.721726 E13.58545
G1 X137.38982 Y155.029456 E13.61935
G1 X136.44556 Y154.237061 E13.65343
G1 X135.598882 Y153.374407 E13.68685
G1 X134.789111 Y152.365003 E13.72263
G1 X134.086196 Y151.27523 E13.75849
G1 X133.548068 Y150.230173 E13.79099
G1 X133.107103 Y149.131857 E13.82372
G1 X132.747482 Y147.895181 E13.85933
G1 X132.512672 Y146.603511 E13.89563
G1 X132.415023 Y145.314896 E13.93136
G1 X132.433777 Y144.219527 E13.96165
G1 X132.573596 Y142.976877 E13.99623
